X:148
T:Humours of Ballyconnell
Z: id:dc-reel-136
M:C
L:1/8
K:D Major
zA|defe dBAF|BFAF E3A|defe dBAF|GBAF D2:|!
AG|FDAD BDAD|GEBE cEBE|FDAD BDAF|GBAF D2:|!
fg|a2b^g a2ef|gece gece|a2b^g a2ef|gecA d2:|!

